X:920
T:Mrs Campbell of Shinness
S:Sessions, Edinburgh
Z:Nigel Gatherer
M:6/8
L:1/8
K:Em
Bee efg | faf g2e | Bee efg | fge dBA  |
Bee efg | faf g2f | ede e2d | efe dBA :|
BGB BdB | Bgf e2d | BGB d2B | efe dBA  |
BGB BdB | Bgf efg | a2a g2f | efe dBA :|
<end>
<start>
